X:140
U: ~ = !turn!
%%topmargin 3cm
T:Murphy's Hornpipe
B:Traditional Irish Fiddle Tunes. Randy Miller and Jack Perron.
Z:Transcribed by Ralph Palmer
R:Hornpipe
M:C|
L:1/8
K:G
D2 | GABG EFGE | AB ((3cBA) FGAF | GBdg ecAG | FGAF DEFD |
GABG EFGE | AB ((3cBA) FGAF | GBdg ecAF | G2 G2 G2 ::
((3Bc^c) | dedc Bc d2 | ((3efg) ed cdef | gfgd ecAG | FGAF DEFD |
GABG EFGE | AB ((3cBA) FGAF | GBdg ecAF | G2 G2 G2 :|]
